X:1
T:The Pledge
T:The Pledge
T:fra Union Temperance Song Book, Boston 1859
T:Lowell Mason
T:E. D. H.
C:Lowell Mason
Z:E. D. H.
%%score [ 1 2 3 4 ]
L:1/8
Q:1/4=80
M:4/4
K:D
V:1 treble nm="Soprano"
V:2 treble nm="Alto"
V:3 treble-8 nm="Tenor"
V:4 bass nm="Bass"
V:1
 F3/2 G/ | A2 A2 B2 A2 | d2 d2 z2 A3/2 A/ | B2 e2 d2 c2 | d4 z2 F3/2 G/ | A2 A2 B2 A2 | %6
w: See yon|wretch- ed drunk- ard|reel- ing From the|dark re- tail- ers|den, Stripp'd of|ev'- ry bet- ter|
 d2 d2 z2 B3/2 B/ | e2 d2 c2 B2 | c6 z2 | d6 A2 | B2 B2 z2 B3/2 B/ | e3 e c2 c2 | d6 |] %13
w: feel- ing That should|warm the hearts of|men,|What can|lift him from his|wretch- ed- ness a-|gain?|
V:2
 D3/2 E/ | F2 F2 G2 F2 | F2 F2 z2 D3/2 D/ | D2 G2 F2 E2 | F4 z2 D3/2 E/ | F2 F2 G2 F2 | %6
w: See yon|wretch- ed drunk- ard|reel- ing From the|dark re- tail- ers|den, Stripp'd of|ev'- ry bet- ter|
 F2 F2 z2 E3/2 E/ | E2 F2 E2 E2 | E6 z2 | F6 A2 | G2 G2 z2 G3/2 G/ | G3 G E2 E2 | F6 |] %13
w: feel- ing That should|warm the hearts of|men,|What can|lift him from his|wretch- ed- ness a-|gain?|
V:3
 A3/2 A/ | A2 d2 d2 d2 | A2 A2 z2 A3/2 A/ | G2 B2 A2 A2 | A4 z2 A3/2 A/ | A2 d2 d2 d2 | %6
w: See yon|wretch- ed drunk- ard|reel- ing From the|dark re- tail- ers|den, Stripp'd of|ev'- ry bet- ter|
 d2 B2 z2 ^G3/2 G/ | A2 A2 A2 ^G2 | A6 z2 | A6 d2 | d2 d2 z2 B3/2 B/ | B3 B A2 A2 | A6 |] %13
w: feel- ing That should|warm the hearts of|men,|What can|lift him from his|wretch- ed- ness a-|gain?|
V:4
 D,3/2 D,/ | D,2 D,2 D,2 D,2 | D,2 D,2 z2 F,3/2 F,/ | G,2 E,2 A,2 A,,2 | D,4 z2 D,3/2 D,/ | %5
w: See yon|wretch- ed drunk- ard|reel- ing From the|dark re- tail- ers|den, Stripp'd of|
 D,2 D,2 D,2 D,2 | B,,2 B,,2 z2 E,3/2 D,/ | C,2 D,2 E,2 E,2 | A,6 z2 | D,6 F,2 | %10
w: ev'- ry bet- ter|feel- ing That should|warm the hearts of|men,|What can|
 G,2 G,2 z2 G,3/2 G,/ | E,3 E, A,2 A,2 | D,6 |] %13
w: lift him from his|wretch- ed- ness a-|gain?|

